actions/symbolic/media-playlist-repeat-rtl-symbolic.svg

<svg viewBox="0 0 16 16" xmlns="http://www.w3.org/2000/svg"><path d="m5 2v1.7999999h7.2v3.6h-1.2v-2.3999999h-6v1.8l-2.4-2.3999999zm0 6.5999999v2.4000001h6v-1.8000004l2.4 2.4000004-2.4 2.4v-1.800001h-7.2v-3.5999991z" fill="#bebebe"/></svg>

<?xml version="1.0" encoding="UTF-8" standalone="no"?>
<svg
   xmlns:dc="http://purl.org/dc/elements/1.1/"
   xmlns:cc="http://creativecommons.org/ns#"
   xmlns:rdf="http://www.w3.org/1999/02/22-rdf-syntax-ns#"
   xmlns:svg="http://www.w3.org/2000/svg"
   xmlns="http://www.w3.org/2000/svg"
   xmlns:sodipodi="http://sodipodi.sourceforge.net/DTD/sodipodi-0.dtd"
   xmlns:inkscape="http://www.inkscape.org/namespaces/inkscape"
   viewBox="0 0 16 16"
   id="svg3255"
   version="1.1"
   inkscape:version="0.91 r13725"
   sodipodi:docname="media-playlist-repeat-rtl-symbolic.svg">
  <metadata
     id="metadata3263">
    <rdf:RDF>
      <cc:Work
         rdf:about="">
        <dc:format>image/svg+xml</dc:format>
        <dc:type
           rdf:resource="http://purl.org/dc/dcmitype/StillImage" />
        <dc:title></dc:title>
      </cc:Work>
    </rdf:RDF>
  </metadata>
  <sodipodi:namedview
     pagecolor="#ffffff"
     bordercolor="#666666"
     borderopacity="1"
     objecttolerance="10"
     gridtolerance="10"
     guidetolerance="10"
     inkscape:pageopacity="0"
     inkscape:pageshadow="2"
     inkscape:window-width="640"
     inkscape:window-height="480"
     id="namedview3261"
     showgrid="false"
     inkscape:zoom="39.8125"
     inkscape:cx="0.61538459"
     inkscape:cy="8"
     inkscape:current-layer="svg3255" />
  <defs
     id="defs3051">
    <style
       type="text/css"
       id="current-color-scheme">
      .ColorScheme-Text {
        color:#bebebe;
      }
      </style>
  </defs>
  <path
     style="color:#bebebe;fill:currentColor;fill-opacity:1;stroke:none"
     class="ColorScheme-Text"
     d="m 5,2 0,1.7999999 7.2,0 0,3.6 -1.2,0 L 11,5 5,5 5,6.8 2.6,4.4000001 5,2 Z M 5,8.5999999 5,11 11,11 11,9.1999996 13.4,11.6 11,14 l 0,-1.800001 -7.2,0 0,-3.5999991 1.2,0 z"
     id="path3259"
     inkscape:connector-curvature="0" />
</svg>
